src/food-drink/food-prepared/1F9C2.svg

<svg id="emoji" viewBox="0 0 72 72" xmlns="http://www.w3.org/2000/svg">
  <g id="grid">
    <path fill="#b3b3b3" d="M68,4V68H4V4H68m4-4H0V72H72V0Z"/>
    <path fill="none" stroke="#00a5ff" stroke-miterlimit="10" stroke-width="0.1" d="M12.923,10.9583H59.0769A1.9231,1.9231,0,0,1,61,12.8814V59.0352a1.9231,1.9231,0,0,1-1.9231,1.9231H12.9231A1.9231,1.9231,0,0,1,11,59.0352V12.8813A1.923,1.923,0,0,1,12.923,10.9583Z"/>
    <rect x="16" y="4" rx="2.2537" width="40" height="64" fill="none" stroke="#00a5ff" stroke-miterlimit="10" stroke-width="0.1"/>
    <rect x="16" y="4" rx="2.2537" width="40" height="64" transform="translate(72) rotate(90)" fill="none" stroke="#00a5ff" stroke-miterlimit="10" stroke-width="0.1"/>
    <circle cx="36" cy="36" r="29" fill="none" stroke="#00a5ff" stroke-miterlimit="10" stroke-width="0.1"/>
  </g>
  <g id="color">
    <path fill="#fff" d="M47.005,23.6808q-.0165-.1244-.0344-.2486c-.6379-4.42-3.0608-8.2535-7.464-9.6336-4.6024-1.4424-10.3.3264-12.82,4.5724-1.69,2.847-1.5438,6.097-1.7552,9.2756-.1392,2.0924-.2538,4.1868-.3806,6.28l-.91,15.01C23.61,49.45,23.1764,58,23.0915,58h26c-.65-10.7276-1.2233-21.46-1.8875-32.1728C47.16,25.11,47.1,24.3934,47.005,23.6808Z"/>
    <path fill="#d0cfce" d="M47.204,25.8272c-.0445-.7175-.1045-1.4339-.199-2.1464q-.0163-.1244-.0344-.2486c-.6379-4.42-3.0609-8.2536-7.464-9.6336a11.4619,11.4619,0,0,0-5.43-.3033,10.62,10.62,0,0,1,1.27.3033c4.4031,1.38,6.8261,5.2141,7.464,9.6336q.018.1242.0344.2486c.0945.7125.1545,1.4289.199,2.1464C43.7082,36.54,44.2813,47.2724,44.9315,58h4.16C48.4413,47.2724,47.8682,36.54,47.204,25.8272Z"/>
  </g>
  <g id="line">
    <path fill="none" stroke="#000" stroke-linecap="round" stroke-linejoin="round" stroke-width="2" d="M47.005,23.6808q-.0165-.1244-.0344-.2486c-.6379-4.42-3.0608-8.2535-7.464-9.6336-4.6024-1.4424-10.3.3264-12.82,4.5724-1.69,2.847-1.5438,6.097-1.7552,9.2756-.1392,2.0924-.2538,4.1868-.3806,6.28l-.91,15.01C23.61,49.45,23.1764,58,23.0915,58h26c-.65-10.7276-1.2233-21.46-1.8875-32.1728C47.16,25.11,47.1,24.3934,47.005,23.6808Z"/>
  </g>
  <g id="color-foreground">
    <circle cx="36.6115" cy="17.5762" r="1.4703"/>
    <circle cx="39.7315" cy="19.6562" r="1.4703"/>
    <circle cx="33.4915" cy="19.6562" r="1.4703"/>
  </g>
</svg>

<svg viewBox="0 0 72 72" xmlns="http://www.w3.org/2000/svg"><path fill="#b3b3b3" d="M68 4v64H4V4h64m4-4H0v72h72V0z"/><path fill="none" stroke="#00a5ff" stroke-miterlimit="10" stroke-width=".1" d="M12.923 10.958h46.154A1.923 1.923 0 0161 12.881v46.154a1.923 1.923 0 01-1.923 1.923H12.923A1.923 1.923 0 0111 59.035V12.881a1.923 1.923 0 011.923-1.923z"/><rect x="16" y="4" rx="2.254" width="40" height="64" fill="none" stroke="#00a5ff" stroke-miterlimit="10" stroke-width=".1"/><rect x="16" y="4" rx="2.254" width="40" height="64" transform="rotate(90 36 36)" fill="none" stroke="#00a5ff" stroke-miterlimit="10" stroke-width=".1"/><circle cx="36" cy="36" r="29" fill="none" stroke="#00a5ff" stroke-miterlimit="10" stroke-width=".1"/><path d="M47.005 23.68l-.034-.248c-.638-4.42-3.061-8.253-7.464-9.633-4.603-1.443-10.3.326-12.82 4.572-1.69 2.847-1.544 6.097-1.756 9.276-.139 2.092-.253 4.186-.38 6.28l-.91 15.01c-.031.513-.465 9.063-.55 9.063h26c-.65-10.728-1.223-21.46-1.887-32.173a30.257 30.257 0 00-.199-2.146z" stroke-linecap="round" stroke-miterlimit="10" stroke-width="6" stroke="#fff" fill="none" stroke-linejoin="round"/><path fill="#fff" d="M47.005 23.68l-.034-.248c-.638-4.42-3.061-8.253-7.464-9.633-4.603-1.443-10.3.326-12.82 4.572-1.69 2.847-1.544 6.097-1.756 9.276-.139 2.092-.253 4.186-.38 6.28l-.91 15.01c-.031.513-.465 9.063-.55 9.063h26c-.65-10.728-1.223-21.46-1.887-32.173a30.257 30.257 0 00-.199-2.146z"/><path fill="#d0cfce" d="M47.204 25.827a30.834 30.834 0 00-.199-2.146q-.016-.125-.034-.249c-.638-4.42-3.061-8.253-7.464-9.633a11.462 11.462 0 00-5.43-.304 10.62 10.62 0 011.27.304c4.403 1.38 6.826 5.214 7.464 9.633q.018.124.034.249c.095.712.155 1.429.199 2.146.664 10.713 1.237 21.445 1.888 32.173h4.16c-.65-10.728-1.224-21.46-1.888-32.173z"/><path fill="none" stroke="#000" stroke-linecap="round" stroke-linejoin="round" stroke-width="2" d="M47.005 23.68l-.034-.248c-.638-4.42-3.061-8.253-7.464-9.633-4.603-1.443-10.3.326-12.82 4.572-1.69 2.847-1.544 6.097-1.756 9.276-.139 2.092-.253 4.186-.38 6.28l-.91 15.01c-.031.513-.465 9.063-.55 9.063h26c-.65-10.728-1.223-21.46-1.887-32.173a30.257 30.257 0 00-.199-2.146z"/><g><circle cx="36.611" cy="17.576" r="1.47"/><circle cx="39.731" cy="19.656" r="1.47"/><circle cx="33.492" cy="19.656" r="1.47"/></g></svg>
